icons-dark/apps/48/konversation.svg

<svg width="48" xmlns="http://www.w3.org/2000/svg" viewBox="0 0 48 48" height="48" xmlns:xlink="http://www.w3.org/1999/xlink">
 <defs>
  <linearGradient id="a" y1="34" y2="4" x2="0" gradientUnits="userSpaceOnUse">
   <stop stop-color="#7cbaf8"/>
   <stop offset="1" stop-color="#f4fcff"/>
  </linearGradient>
  <linearGradient id="b" y1="509.8" x1="405.57" y2="533.8" x2="427.57" gradientUnits="userSpaceOnUse">
   <stop stop-opacity=".286"/>
   <stop offset="1" stop-opacity="0"/>
  </linearGradient>
  <linearGradient xlink:href="#b" id="c" y1="514.8" x1="412.57" y2="527.8" x2="425.57" gradientUnits="userSpaceOnUse"/>
  <linearGradient id="d" y1="44" y2="4" x2="0" gradientUnits="userSpaceOnUse" gradientTransform="matrix(-1 0 0 1 432.57 499.8)">
   <stop stop-color="#2f74c8"/>
   <stop offset="1" stop-color="#4699d7"/>
  </linearGradient>
 </defs>
 <g fill-rule="evenodd" transform="translate(-384.57-499.8)">
  <path fill="url(#d)" d="m428.57 503.8v30h-20l-11 10v-10h-9v-30z"/>
  <path opacity=".2" fill="url(#b)" d="m402.57 534.8l-6-6v-3l-3-3v-9h4l1 1v-1l20-6 10 7.461v18.539h-26z"/>
  <path opacity=".2" fill="url(#c)" d="m419.57 521.8l9 9v-11l-5-5h-4z"/>
  <path fill="url(#a)" d="m34 8l-20 6v9l20 6v-15zm-25 6v9h4v-9zm26 1v7h4v-7zm-23 9v5h3v-5z" transform="translate(384.57 499.8)"/>
 </g>
</svg>

<?xml version="1.0" encoding="UTF-8" standalone="no"?>

<!-- Created with Inkscape (http://www.inkscape.org/) -->
<svg xmlns:xlink="http://www.w3.org/1999/xlink" viewBox="0 0 48 48" version="1.1" xmlns:inkscape="http://www.inkscape.org/namespaces/inkscape" width="48" xmlns="http://www.w3.org/2000/svg" height="48">
 <defs id="defs5455">
  <linearGradient inkscape:collect="always" id="linearGradient4984">
   <stop style="stop-opacity:0.286275" id="stop4986"/>
   <stop offset="1" style="stop-opacity:0" id="stop4988"/>
  </linearGradient>
  <linearGradient osb:paint="gradient" id="linearGradient4207">
   <stop style="stop-color:#3498db" id="stop3371"/>
   <stop offset="1" style="stop-color:#3498db;stop-opacity:0" id="stop3373"/>
  </linearGradient>
  <linearGradient inkscape:collect="always" xlink:href="#linearGradient4290" id="linearGradient4961" y1="34" y2="4" x2="0" gradientUnits="userSpaceOnUse"/>
  <linearGradient inkscape:collect="always" xlink:href="#linearGradient4984" id="linearGradient4990" y1="509.798" x1="405.57144" y2="533.79797" x2="427.57144" gradientUnits="userSpaceOnUse"/>
  <linearGradient inkscape:collect="always" xlink:href="#linearGradient4984" id="linearGradient6136" y1="514.79797" x1="412.57144" y2="527.79797" x2="425.57144" gradientUnits="userSpaceOnUse"/>
  <linearGradient inkscape:collect="always" id="linearGradient4143">
   <stop style="stop-color:#197cf1" id="stop4145"/>
   <stop offset="1" style="stop-color:#20bcfa" id="stop4147"/>
  </linearGradient>
  <linearGradient inkscape:collect="always" id="linearGradient4214">
   <stop style="stop-color:#2f74c8" id="stop4216"/>
   <stop offset="1" style="stop-color:#4699d7" id="stop4218"/>
  </linearGradient>
  <linearGradient inkscape:collect="always" xlink:href="#linearGradient4214" id="linearGradient4416" y1="43.999973" y2="4" x2="0" gradientUnits="userSpaceOnUse" gradientTransform="matrix(-1 0 0 1 432.57143 499.798)"/>
  <linearGradient inkscape:collect="always" xlink:href="#linearGradient4143" id="linearGradient4149" y1="545.79797" y2="517.79797" x2="0" gradientUnits="userSpaceOnUse" gradientTransform="matrix(0.92857108 0 0 0.92857057 28.612354 37.986142)"/>
  <linearGradient inkscape:collect="always" id="linearGradient4290">
   <stop style="stop-color:#7cbaf8" id="stop4292"/>
   <stop offset="1" style="stop-color:#f4fcff" id="stop4294"/>
  </linearGradient>
  <linearGradient inkscape:collect="always" xlink:href="#linearGradient4290" id="linearGradient3077" y1="29.999973" y2="2" gradientUnits="userSpaceOnUse" x2="0" gradientTransform="matrix(1.3793103 0 0 1.3793103 1.241379 1005.6035)"/>
  <linearGradient inkscape:collect="always" xlink:href="#linearGradient4143" id="linearGradient3083" y1="545.79797" y2="517.79797" gradientUnits="userSpaceOnUse" x2="0" gradientTransform="matrix(1.2807877 0 0 1.280787 -450.11598 346.31133)"/>
  <linearGradient inkscape:collect="always" xlink:href="#linearGradient4290" id="linearGradient3870" y1="29.999973" y2="2" gradientUnits="userSpaceOnUse" x2="0" gradientTransform="matrix(1.3793103 0 0 1.3793103 -18.758621 1005.6035)"/>
 </defs>
 <metadata id="metadata5458"/>
 <g inkscape:label="Capa 1" inkscape:groupmode="layer" id="layer1" transform="matrix(1 0 0 1 -384.57143 -499.798)">
  <path inkscape:connector-curvature="0" style="fill:url(#linearGradient4416);fill-rule:evenodd" id="path4445-0" d="m 428.57143,503.798 v 30 h -20 l -11,10 v -10 h -9 v -30 z"/>
  <path inkscape:connector-curvature="0" style="fill:url(#linearGradient4990);opacity:0.2;fill-rule:evenodd" id="path4982" d="m 402.57143,534.798 -6,-6 v -3 l -3,-3 v -9 h 4 l 1,1 v -1 l 20,-6 10,7.46136 V 533.798 h -26 z"/>
  <path inkscape:connector-curvature="0" style="fill:url(#linearGradient6136);opacity:0.2;fill-rule:evenodd" id="path6128" d="m 419.57143,521.798 9,9 v -11 l -5,-5 h -4 z"/>
  <path style="fill:url(#linearGradient4961);fill-rule:evenodd" id="rect3794" d="M 34 8 L 14 14 L 14 23 L 34 29 L 34 23 L 34 14 L 34 8 z M 9 14 L 9 23 L 13 23 L 13 14 L 9 14 z M 35 15 L 35 22 L 39 22 L 39 15 L 35 15 z M 12 24 L 12 29 L 15 29 L 15 24 L 12 24 z " transform="matrix(1 0 0 1 384.57143 499.798)"/>
 </g>
</svg>
